_assets/images/icon-instagram.svg

<svg fill="none" height="24" viewBox="0 0 25 24" width="25" xmlns="http://www.w3.org/2000/svg"><g clip-rule="evenodd" fill="#fff" fill-rule="evenodd"><path d="m12.0015.00805664c-3.25946 0-3.66817.01381556-4.94824.07222186-1.27742.0582635-2.14984.2611615-2.91322.5578615-.7892.306657-1.45849.71703-2.12574 1.38422-.66719.66724-1.07756 1.33653-1.384217 2.12573-.2967.76338-.499598 1.63581-.5578611 2.91322-.0584064 1.28008-.0722219 1.68878-.0722219 4.94819 0 3.2594.0138155 3.6681.0722219 4.9482.0582631 1.2774.2611611 2.1498.5578611 2.9132.306657.7892.717027 1.4585 1.384217 2.1257.66725.6672 1.33654 1.0776 2.12574 1.3843.76338.2966 1.6358.4995 2.91322.5578 1.28007.0584 1.68878.0722 4.94824.0722 3.2593 0 3.668-.0138 4.9481-.0722 1.2774-.0583 2.1498-.2612 2.9132-.5578.7892-.3067 1.4585-.7171 2.1258-1.3843.6671-.6672 1.0775-1.3365 1.3842-2.1257.2967-.7634.4996-1.6358.5578-2.9132.0584-1.2801.0723-1.6888.0723-4.9482 0-3.25941-.0139-3.66811-.0723-4.94819-.0582-1.27741-.2611-2.14984-.5578-2.91322-.3067-.7892-.7171-1.45849-1.3842-2.12573-.6673-.66719-1.3366-1.077563-2.1258-1.38422-.7634-.2967-1.6358-.499598-2.9132-.5578615-1.2801-.0584063-1.6888-.07222186-4.9481-.07222186zm0 2.16241336c3.2044 0 3.584.01225 4.8495.06999 1.1702.05335 1.8056.24887 2.2285.41322.5602.21772.96.47778 1.38.89777.42.41995.68.81974.8977 1.37994.1644.42289.3599 1.05836.4133 2.22849.0577 1.2655.0699 1.64509.0699 4.84962 0 3.2045-.0122 3.5841-.0699 4.8496-.0534 1.1701-.2489 1.8056-.4133 2.2285-.2177.5602-.4777.96-.8977 1.3799-.42.42-.8198.6801-1.38.8978-.4229.1643-1.0583.3599-2.2285.4132-1.2653.0578-1.6448.07-4.8495.07-3.20482 0-3.58432-.0122-4.84968-.07-1.17013-.0533-1.80559-.2489-2.22849-.4132-.5602-.2177-.95999-.4778-1.37993-.8978-.41995-.4199-.68006-.8197-.89777-1.3799-.16436-.4229-.35987-1.0584-.41323-2.2285-.05774-1.2655-.06998-1.6451-.06998-4.8496 0-3.20453.01224-3.58412.06998-4.84962.05336-1.17013.24887-1.8056.41323-2.22849.21771-.5602.47777-.95999.89777-1.37994.41994-.41999.81973-.68005 1.37993-.89777.4229-.16435 1.05836-.35987 2.22849-.41322 1.2655-.05774 1.6451-.06999 4.84968-.06999z"/><path d="m12.0014 16.01c-2.20942 0-4.00048-1.791-4.00048-4.0004 0-2.20944 1.79106-4.0005 4.00048-4.0005 2.2094 0 4.0005 1.79106 4.0005 4.0005 0 2.2094-1.7911 4.0004-4.0005 4.0004zm0-10.16332c-3.4037 0-6.1629 2.7592-6.1629 6.16292 0 3.4037 2.7592 6.1629 6.1629 6.1629s6.1629-2.7592 6.1629-6.1629c0-3.40372-2.7592-6.16292-6.1629-6.16292z"/><path d="m19.848 5.60304c0 .79539-.6448 1.44015-1.4402 1.44015-.7953 0-1.4401-.64476-1.4401-1.44015s.6448-1.4402 1.4401-1.4402c.7954 0 1.4402.64481 1.4402 1.4402z"/></g></svg>

<svg width="25" height="24" viewBox="0 0 25 24" fill="none" xmlns="http://www.w3.org/2000/svg">
<path fill-rule="evenodd" clip-rule="evenodd" d="M12.0015 0.00805664C8.74204 0.00805664 8.33333 0.0218722 7.05326 0.0802785C5.77584 0.138542 4.90342 0.34144 4.14004 0.63814C3.35084 0.944797 2.68155 1.35517 2.0143 2.02236C1.34711 2.6896 0.93674 3.35889 0.630083 4.14809C0.333383 4.91147 0.130485 5.7839 0.0722219 7.06131C0.0138155 8.34139 0 8.75009 0 12.0095C0 15.2689 0.0138155 15.6776 0.0722219 16.9577C0.130485 18.2351 0.333383 19.1075 0.630083 19.8709C0.93674 20.6601 1.34711 21.3294 2.0143 21.9966C2.68155 22.6638 3.35084 23.0742 4.14004 23.3809C4.90342 23.6775 5.77584 23.8804 7.05326 23.9387C8.33333 23.9971 8.74204 24.0109 12.0015 24.0109C15.2608 24.0109 15.6695 23.9971 16.9496 23.9387C18.227 23.8804 19.0994 23.6775 19.8628 23.3809C20.652 23.0742 21.3213 22.6638 21.9886 21.9966C22.6557 21.3294 23.0661 20.6601 23.3728 19.8709C23.6695 19.1075 23.8724 18.2351 23.9306 16.9577C23.989 15.6776 24.0029 15.2689 24.0029 12.0095C24.0029 8.75009 23.989 8.34139 23.9306 7.06131C23.8724 5.7839 23.6695 4.91147 23.3728 4.14809C23.0661 3.35889 22.6557 2.6896 21.9886 2.02236C21.3213 1.35517 20.652 0.944797 19.8628 0.63814C19.0994 0.34144 18.227 0.138542 16.9496 0.0802785C15.6695 0.0218722 15.2608 0.00805664 12.0015 0.00805664ZM12.0015 2.17047C15.2059 2.17047 15.5855 2.18272 16.851 2.24046C18.0212 2.29381 18.6566 2.48933 19.0795 2.65368C19.6397 2.8714 20.0395 3.13146 20.4595 3.55145C20.8795 3.9714 21.1395 4.37119 21.3572 4.93139C21.5216 5.35428 21.7171 5.98975 21.7705 7.15988C21.8282 8.42538 21.8404 8.80497 21.8404 12.0095C21.8404 15.214 21.8282 15.5936 21.7705 16.8591C21.7171 18.0292 21.5216 18.6647 21.3572 19.0876C21.1395 19.6478 20.8795 20.0476 20.4595 20.4675C20.0395 20.8875 19.6397 21.1476 19.0795 21.3653C18.6566 21.5296 18.0212 21.7252 16.851 21.7785C15.5857 21.8363 15.2062 21.8485 12.0015 21.8485C8.79668 21.8485 8.41718 21.8363 7.15182 21.7785C5.98169 21.7252 5.34623 21.5296 4.92333 21.3653C4.36313 21.1476 3.96334 20.8875 3.5434 20.4675C3.12345 20.0476 2.86334 19.6478 2.64563 19.0876C2.48127 18.6647 2.28576 18.0292 2.2324 16.8591C2.17466 15.5936 2.16242 15.214 2.16242 12.0095C2.16242 8.80497 2.17466 8.42538 2.2324 7.15988C2.28576 5.98975 2.48127 5.35428 2.64563 4.93139C2.86334 4.37119 3.1234 3.9714 3.5434 3.55145C3.96334 3.13146 4.36313 2.8714 4.92333 2.65368C5.34623 2.48933 5.98169 2.29381 7.15182 2.24046C8.41732 2.18272 8.79692 2.17047 12.0015 2.17047Z" fill="white"/>
<path fill-rule="evenodd" clip-rule="evenodd" d="M12.0014 16.01C9.79198 16.01 8.00092 14.219 8.00092 12.0096C8.00092 9.80016 9.79198 8.0091 12.0014 8.0091C14.2108 8.0091 16.0019 9.80016 16.0019 12.0096C16.0019 14.219 14.2108 16.01 12.0014 16.01ZM12.0014 5.84668C8.5977 5.84668 5.8385 8.60588 5.8385 12.0096C5.8385 15.4133 8.5977 18.1725 12.0014 18.1725C15.4051 18.1725 18.1643 15.4133 18.1643 12.0096C18.1643 8.60588 15.4051 5.84668 12.0014 5.84668Z" fill="white"/>
<path fill-rule="evenodd" clip-rule="evenodd" d="M19.848 5.60304C19.848 6.39843 19.2032 7.04319 18.4078 7.04319C17.6125 7.04319 16.9677 6.39843 16.9677 5.60304C16.9677 4.80765 17.6125 4.16284 18.4078 4.16284C19.2032 4.16284 19.848 4.80765 19.848 5.60304Z" fill="white"/>
</svg>
